src/images/tours-whatsapp-icon.svg

<svg width="40" height="40" viewBox="0 0 40 40" fill="none" xmlns="http://www.w3.org/2000/svg">
<path fill-rule="evenodd" clip-rule="evenodd" d="M20.6586 31.1271H20.6537C18.6633 31.1265 16.7075 30.6271 14.9705 29.6796L8.66602 31.3334L10.3532 25.1707C9.31246 23.3671 8.76483 21.3213 8.76572 19.2252C8.76833 12.6681 14.1034 7.33337 20.6585 7.33337C23.8399 7.33475 26.8259 8.57326 29.0712 10.8212C31.3165 13.0691 32.5524 16.057 32.5511 19.2346C32.5485 25.7903 27.2156 31.1245 20.6586 31.1271ZM15.2626 27.5266L15.6235 27.7408C17.1412 28.6414 18.8808 29.118 20.6546 29.1187H20.6586C26.1067 29.1187 30.541 24.6843 30.5431 19.2339C30.5442 16.5927 29.517 14.1093 27.6507 12.2409C25.7845 10.3724 23.3027 9.34299 20.6625 9.34207C15.2101 9.34207 10.7758 13.776 10.7737 19.2259C10.7729 21.0937 11.2955 22.9126 12.285 24.4864L12.52 24.8604L11.5214 28.508L15.2626 27.5266ZM26.243 21.7951C26.4503 21.8953 26.5902 21.9629 26.65 22.0626C26.7243 22.1865 26.7243 22.7815 26.4768 23.4757C26.229 24.1699 25.0419 24.8034 24.4709 24.8886C23.959 24.9652 23.3111 24.9971 22.5993 24.7709C22.1677 24.634 21.6142 24.4511 20.9053 24.1449C18.1195 22.9421 16.2369 20.242 15.8811 19.7317C15.8561 19.696 15.8387 19.671 15.829 19.658L15.8266 19.6548C15.6693 19.445 14.6156 18.0391 14.6156 16.584C14.6156 15.2152 15.288 14.4978 15.5975 14.1676C15.6187 14.1449 15.6382 14.1241 15.6556 14.105C15.928 13.8075 16.25 13.7332 16.4481 13.7332C16.6461 13.7332 16.8444 13.735 17.0176 13.7437C17.0389 13.7448 17.0612 13.7446 17.0841 13.7445C17.2573 13.7435 17.4732 13.7422 17.6862 14.2538C17.7681 14.4507 17.888 14.7426 18.0145 15.0504C18.2701 15.6729 18.5526 16.3607 18.6024 16.4602C18.6767 16.609 18.7262 16.7824 18.6271 16.9808C18.6123 17.0106 18.5985 17.0387 18.5854 17.0655C18.511 17.2174 18.4562 17.3291 18.33 17.4765C18.2803 17.5345 18.229 17.597 18.1777 17.6595C18.0755 17.784 17.9732 17.9085 17.8842 17.9971C17.7355 18.1453 17.5806 18.3061 17.7539 18.6036C17.9273 18.9011 18.5237 19.8741 19.4071 20.6621C20.3567 21.5091 21.182 21.8671 21.6003 22.0486C21.682 22.084 21.7482 22.1127 21.7967 22.137C22.0938 22.2858 22.2671 22.2609 22.4405 22.0626C22.6138 21.8643 23.1833 21.1949 23.3814 20.8975C23.5795 20.6001 23.7776 20.6496 24.05 20.7488C24.3224 20.848 25.7834 21.5668 26.0805 21.7155C26.1385 21.7446 26.1928 21.7708 26.243 21.7951Z" fill="#FDFDFD"/>
</svg>

<svg xmlns="http://www.w3.org/2000/svg" width="40" height="40" fill="none"><path fill="#FDFDFD" fill-rule="evenodd" d="M20.659 31.127h-.005c-1.99 0-3.947-.5-5.684-1.447l-6.304 1.653 1.687-6.162a11.871 11.871 0 0 1-1.587-5.946c.002-6.557 5.337-11.892 11.893-11.892a11.816 11.816 0 0 1 8.412 3.488 11.82 11.82 0 0 1 3.48 8.414c-.003 6.555-5.335 11.89-11.892 11.892Zm-5.396-3.6.36.214a9.87 9.87 0 0 0 5.032 1.378h.004c5.448 0 9.882-4.435 9.884-9.885a9.824 9.824 0 0 0-2.892-6.993 9.817 9.817 0 0 0-6.988-2.899c-5.453 0-9.887 4.434-9.89 9.884a9.86 9.86 0 0 0 1.512 5.26l.235.374-.999 3.648 3.742-.981Zm10.98-5.732c.207.1.347.168.407.268.074.123.074.719-.173 1.413-.248.694-1.435 1.327-2.006 1.413-.512.076-1.16.108-1.872-.118-.431-.137-.985-.32-1.694-.626-2.786-1.203-4.668-3.903-5.024-4.413l-.052-.074-.002-.003c-.158-.21-1.211-1.616-1.211-3.071 0-1.369.672-2.086.982-2.416l.058-.063c.272-.298.594-.372.792-.372.198 0 .396.002.57.01.02.002.043.002.066.002.173-.002.39-.003.602.509l.329.796c.255.623.538 1.31.587 1.41.075.149.124.322.025.52-.015.03-.028.059-.042.085a1.69 1.69 0 0 1-.255.412c-.05.058-.101.12-.152.183a4.893 4.893 0 0 1-.294.337c-.149.148-.303.31-.13.607s.77 1.27 1.653 2.058c.95.847 1.775 1.205 2.193 1.387.082.035.148.064.197.088.297.149.47.124.643-.074.174-.199.743-.868.941-1.165.198-.298.397-.248.669-.15.272.1 1.733.819 2.03.967l.163.08Z" clip-rule="evenodd"/></svg>
